X: 27153
T: Miss McLeod's
R: reel
M: 4/4
K: Gmajor
B|:dGBG ~B3 A|BcBA G2 AG|dGBG GAAG|ABcA G2 AG|
dGBG ~B3 A|~B3 d efed|Bdef gedB|AcBA G2 AG:|
|:G2 gf efge|~B3 A BcBA|G2 gf efge|~a3 b agef|
~g3f efge|~B3 A ~B3 d|efed (3Bcd ef|gedB AcBA:|
|:G2 BG dGBG|~B3 A BcBA|G2 BG dGBG|~A3 G ABcA|
G2 BG dGBG|~B3 A ~B3 d|efed Bdef|gedB AcBA:|

